**kern	**kern	**dynam
*part1	*part1	*part1
*staff2	*staff1	*
*I"Piano	*	*
*clefF4	*clefG2	*
*k[f#c#]	*k[f#c#]	*
=1	=1	=1
*tremolo	*	*
*	*tremolo	*
64AAALLLL	64gg 64ccc#LLLL	.
64AA	64cc#	.
64AAA	64gg 64ccc#	.
64AA	64cc#	.
64AAA	64gg 64ccc#	.
64AA	64cc#	.
64AAA	64gg 64ccc#	.
64AA	64cc#	.
64AAA	64gg 64ccc#	.
64AA	64cc#	.
64AAA	64gg 64ccc#	.
64AA	64cc#	.
64AAA	64gg 64ccc#	.
64AA	64cc#	.
64AAA	64gg 64ccc#	.
64AA	64cc#	.
64AAA	64gg 64ccc#	.
64AA	64cc#	.
64AAA	64gg 64ccc#	.
64AA	64cc#	.
64AAA	64gg 64ccc#	.
64AA	64cc#	.
64AAA	64gg 64ccc#	.
64AA	64cc#	.
64AAA	64gg 64ccc#	.
64AA	64cc#	.
64AAA	64gg 64ccc#	.
64AA	64cc#	.
64AAA	64gg 64ccc#	.
64AA	64cc#	.
64AAA	64gg 64ccc#	.
64AA	64cc#	.
64AAA	64gg 64ccc#	.
64AA	64cc#	.
64AAA	64gg 64ccc#	.
64AA	64cc#	.
64AAA	64gg 64ccc#	.
64AA	64cc#	.
64AAA	64gg 64ccc#	.
64AA	64cc#	.
64AAA	64gg 64ccc#	.
64AA	64cc#	.
64AAA	64gg 64ccc#	.
64AA	64cc#	.
64AAA	64gg 64ccc#	.
64AA	64cc#	.
64AAA	64gg 64ccc#	.
64AAJJJJ	64cc#JJJJ	.
=	=	=
64AAALLLL	64gg 64ccc#LLLL	.
64AA	64cc#	.
64AAA	64gg 64ccc#	.
64AA	64cc#	.
64AAA	64gg 64ccc#	.
64AA	64cc#	.
64AAA	64gg 64ccc#	.
64AA	64cc#	.
64AAA	64gg 64ccc#	.
64AA	64cc#	.
64AAA	64gg 64ccc#	.
64AA	64cc#	.
64AAA	64gg 64ccc#	.
64AA	64cc#	.
64AAA	64gg 64ccc#	.
64AA	64cc#	.
64AAA	64gg 64ccc#	.
64AA	64cc#	.
64AAA	64gg 64ccc#	.
64AA	64cc#	.
64AAA	64gg 64ccc#	.
64AA	64cc#	.
64AAA	64gg 64ccc#	.
64AA	64cc#	.
64AAA	64gg 64ccc#	[
64AA	64cc#	.
64AAA	64gg 64ccc#	.
64AA	64cc#	.
64AAA	64gg 64ccc#	.
64AA	64cc#	.
64AAA	64gg 64ccc#	.
64AA	64cc#	.
64AAA	64gg 64ccc#	.
64AA	64cc#	.
64AAA	64gg 64ccc#	.
64AA	64cc#	.
64AAA	64gg 64ccc#	.
64AA	64cc#	.
64AAA	64gg 64ccc#	.
64AA	64cc#	.
64AAA	64gg 64ccc#	.
64AA	64cc#	.
64AAA	64gg 64ccc#	.
64AA	64cc#	.
64AAA	64gg 64ccc#	.
64AA	64cc#	.
64AAA	64gg 64ccc#	.
64AAJJJJ	64cc#JJJJ	.
*Xtremolo	*	*
=	=	=
*^	*	*
4r	[2.DD [2.AA	64ff# 64dddLLLL	f
.	.	64dd	.
.	.	64ff# 64ddd	.
.	.	64dd	.
.	.	64ff# 64ddd	.
.	.	64dd	.
.	.	64ff# 64ddd	.
.	.	64dd	.
.	.	64ff# 64ddd	.
.	.	64dd	.
.	.	64ff# 64ddd	.
.	.	64dd	.
.	.	64ff# 64ddd	.
.	.	64dd	.
.	.	64ff# 64ddd	.
.	.	64dd	.
(4F#	.	64ff# 64ddd	.
.	.	64dd	.
.	.	64ff# 64ddd	.
.	.	64dd	.
.	.	64ff# 64ddd	.
.	.	64dd	.
.	.	64ff# 64ddd	.
.	.	64dd	.
.	.	64ff# 64ddd	.
.	.	64dd	.
.	.	64ff# 64ddd	.
.	.	64dd	.
.	.	64ff# 64ddd	.
.	.	64dd	.
.	.	64ff# 64ddd	.
.	.	64dd	.
4A	.	64ff# 64ddd	.
.	.	64dd	.
.	.	64ff# 64ddd	.
.	.	64dd	.
.	.	64ff# 64ddd	.
.	.	64dd	.
.	.	64ff# 64ddd	.
.	.	64dd	.
.	.	64ff# 64ddd	.
.	.	64dd	.
.	.	64ff# 64ddd	.
.	.	64dd	.
.	.	64ff# 64ddd	.
.	.	64dd	.
.	.	64ff# 64ddd	.
.	.	64ddJJJJ	.
=	=	=	=
2.B)	4DD] 4AA]	64ff# 64dddLLLL	.
.	.	64dd	.
.	.	64ff# 64ddd	.
.	.	64dd	.
.	.	64ff# 64ddd	.
.	.	64dd	.
.	.	64ff# 64ddd	.
.	.	64dd	.
.	.	64ff# 64ddd	.
.	.	64dd	.
.	.	64ff# 64ddd	.
.	.	64dd	.
.	.	64ff# 64ddd	.
.	.	64dd	.
.	.	64ff# 64ddd	.
.	.	64dd	.
.	4r	64ff# 64ddd	.
.	.	64dd	.
.	.	64ff# 64ddd	.
.	.	64dd	.
.	.	64ff# 64ddd	.
.	.	64dd	.
.	.	64ff# 64ddd	.
.	.	64dd	.
.	.	64ff# 64ddd	.
.	.	64dd	.
.	.	64ff# 64ddd	.
.	.	64dd	.
.	.	64ff# 64ddd	.
.	.	64dd	.
.	.	64ff# 64ddd	.
.	.	64dd	.
.	4r	64ff# 64ddd	.
.	.	64dd	.
.	.	64ff# 64ddd	.
.	.	64dd	.
.	.	64ff# 64ddd	.
.	.	64dd	.
.	.	64ff# 64ddd	.
.	.	64dd	.
.	.	64ff# 64ddd	.
.	.	64dd	.
.	.	64ff# 64ddd	.
.	.	64dd	.
.	.	64ff# 64ddd	.
.	.	64dd	.
.	.	64ff# 64ddd	.
.	.	64ddJJJJ	.
=	=	=	=
(4A	([2.DD: [2.AA:	64ff# 64dddLLLL	.
.	.	64dd	.
.	.	64ff# 64ddd	.
.	.	64dd	.
.	.	64ff# 64ddd	.
.	.	64dd	.
.	.	64ff# 64ddd	.
.	.	64dd	.
.	.	64ff# 64ddd	.
.	.	64dd	.
.	.	64ff# 64ddd	.
.	.	64dd	.
.	.	64ff# 64ddd	.
.	.	64dd	.
.	.	64ff# 64ddd	.
.	.	64dd	.
4F#	.	64ff# 64ddd	.
.	.	64dd	.
.	.	64ff# 64ddd	.
.	.	64dd	.
.	.	64ff# 64ddd	.
.	.	64dd	.
.	.	64ff# 64ddd	.
.	.	64dd	.
.	.	64ff# 64ddd	.
.	.	64dd	.
.	.	64ff# 64ddd	.
.	.	64dd	.
.	.	64ff# 64ddd	.
.	.	64dd	.
.	.	64ff# 64ddd	.
.	.	64dd	.
4A	.	64ff# 64ddd	.
.	.	64dd	.
.	.	64ff# 64ddd	.
.	.	64dd	.
.	.	64ff# 64ddd	.
.	.	64dd	.
.	.	64ff# 64ddd	.
.	.	64dd	.
.	.	64ff# 64ddd	.
.	.	64dd	.
.	.	64ff# 64ddd	.
.	.	64dd	.
.	.	64ff# 64ddd	.
.	.	64dd	.
.	.	64ff# 64ddd	.
.	.	64ddJJJJ	.
=	=	=	=
2.B)	4DD]) 4AA]	64ff# 64dddLLLL	.
.	.	64dd	.
.	.	64ff# 64ddd	.
.	.	64dd	.
.	.	64ff# 64ddd	.
.	.	64dd	.
.	.	64ff# 64ddd	.
.	.	64dd	.
.	.	64ff# 64ddd	.
.	.	64dd	.
.	.	64ff# 64ddd	.
.	.	64dd	.
.	.	64ff# 64ddd	.
.	.	64dd	.
.	.	64ff# 64ddd	.
.	.	64dd	.
.	4r	64ff# 64ddd	.
.	.	64dd	.
.	.	64ff# 64ddd	.
.	.	64dd	.
.	.	64ff# 64ddd	.
.	.	64dd	.
.	.	64ff# 64ddd	.
.	.	64dd	.
.	.	64ff# 64ddd	.
.	.	64dd	.
.	.	64ff# 64ddd	.
.	.	64dd	.
.	.	64ff# 64ddd	.
.	.	64dd	.
.	.	64ff# 64ddd	.
.	.	64dd	.
.	4r	64ff# 64ddd	.
.	.	64dd	.
.	.	64ff# 64ddd	.
.	.	64dd	.
.	.	64ff# 64ddd	.
.	.	64dd	.
.	.	64ff# 64ddd	.
.	.	64dd	.
.	.	64ff# 64ddd	.
.	.	64dd	.
.	.	64ff# 64ddd	.
.	.	64dd	.
.	.	64ff# 64ddd	.
.	.	64dd	.
.	.	64ff# 64ddd	.
.	.	64ddJJJJ	.
=	=	=	=
(4A	[2.DD: [2.AA:	64ff# 64dddLLLL	.
.	.	64dd	.
.	.	64ff# 64ddd	.
.	.	64dd	.
.	.	64ff# 64ddd	.
.	.	64dd	.
.	.	64ff# 64ddd	.
.	.	64dd	.
.	.	64ff# 64ddd	.
.	.	64dd	.
.	.	64ff# 64ddd	.
.	.	64dd	.
.	.	64ff# 64ddd	.
.	.	64dd	.
.	.	64ff# 64ddd	.
.	.	64dd	.
4B	.	64ff# 64ddd	.
.	.	64dd	.
.	.	64ff# 64ddd	.
.	.	64dd	.
.	.	64ff# 64ddd	.
.	.	64dd	.
.	.	64ff# 64ddd	.
.	.	64dd	.
.	.	64ff# 64ddd	.
.	.	64dd	.
.	.	64ff# 64ddd	.
.	.	64dd	.
.	.	64ff# 64ddd	.
.	.	64dd	.
.	.	64ff# 64ddd	.
.	.	64dd	.
4c#	.	64ff# 64ddd	.
.	.	64dd	.
.	.	64ff# 64ddd	.
.	.	64dd	.
.	.	64ff# 64ddd	.
.	.	64dd	.
.	.	64ff# 64ddd	.
.	.	64dd	.
.	.	64ff# 64ddd	.
.	.	64dd	.
.	.	64ff# 64ddd	.
.	.	64dd	.
.	.	64ff# 64ddd	.
.	.	64dd	.
.	.	64ff# 64ddd	.
.	.	64ddJJJJ	.
=	=	=	=
4e	2DD_ 2AA_	64ff# 64dddLLLL	.
.	.	64dd	.
.	.	64ff# 64ddd	.
.	.	64dd	.
.	.	64ff# 64ddd	.
.	.	64dd	.
.	.	64ff# 64ddd	.
.	.	64dd	.
.	.	64ff# 64ddd	.
.	.	64dd	.
.	.	64ff# 64ddd	.
.	.	64dd	.
.	.	64ff# 64ddd	.
.	.	64dd	.
.	.	64ff# 64ddd	.
.	.	64dd	.
4d	.	64ff# 64ddd	.
.	.	64dd	.
.	.	64ff# 64ddd	.
.	.	64dd	.
.	.	64ff# 64ddd	.
.	.	64dd	.
.	.	64ff# 64ddd	.
.	.	64dd	.
.	.	64ff# 64ddd	.
.	.	64dd	.
.	.	64ff# 64ddd	.
.	.	64dd	.
.	.	64ff# 64ddd	.
.	.	64dd	.
.	.	64ff# 64ddd	.
.	.	64dd	.
4f#)	8DD] 8AA]	64ff# 64ddd	.
.	.	64dd	.
.	.	64ff# 64ddd	.
.	.	64dd	.
.	.	64ff# 64ddd	.
.	.	64dd	.
.	.	64ff# 64ddd	.
.	.	64dd	.
.	8r	64ff# 64ddd	.
.	.	64dd	.
.	.	64ff# 64ddd	.
.	.	64dd	.
.	.	64ff# 64ddd	.
.	.	64dd	.
.	.	64ff# 64ddd	.
.	.	64ddJJJJ	.
*	*	*Xtremolo	*
*v	*v	*	*
=	=	=
*-	*-	*-
!!!system-decoration: {(s1,s2)}
